X: 1
T: String Quartet in A Major opus 20 no 6 mvt 1
C: Franz Joseph Haydn
%%abc-version 2.0
%%abcx-abcm2ps-target-version 5.9.1 (29 Sep 2008)
%%abc-creator hum2abc beta
%%abcx-conversion-date 2021/02/14 14:38:13
%%abc-copyright Copyright (c) 1994, 2000 Center for Computer Assisted Research in the Humanities
%%abc-edited-by Frances Bennion
%%abcx-initial-encoding-date 1997/04/15
%%gracespace 0 6 6
%%humdrum-veritas 1672387859
%%humdrum-veritas-data 4190110939
%%linebreak <none>
%%barnumbers 0
L: 1/8
M: 6/8
N: Derived from op20n6-01.krn
Q: "Allegro di molto e scherzando"
V: 1
V: 2
V: 3
V: 4 clef=alto
V: 5 clef=bass
K: A
[V:1]A3 c/A/e/c/A/E/ [I:setbarnb2]|
[V:2]z6 |
[V:3]zCC C2z |
[V:4]zEE E2z |
[V:5]zA,A, A,2z |
[V:1]CA,B, CA,z |
[V:2]z6 |
[V:3]z2G, A,2z |
[V:4]z2E, E,2z |
[V:5]z2E, A,2z |
[V:1]Bz2 cz2 |
[V:2]Ez2 Az2 |
[V:3]zBB zcc |
[V:4]zGG zAA |
[V:5]zE,E, zA,,A,, |
[V:1]dd/c/d cz2 |
[V:2]EEE Ez2 |
[V:3]zBB Az2 |
[V:4]zEE Ez2 |
[V:5]zG,,G,, A,,2z |
[V:1]A3 c/A/e/c/A/E/ |
[V:2]z6 |
[V:3]zCC Cz2 |
[V:4]zEE E2z |
[V:5]zA,A, A,2z |
[V:1]CA,B, CA,z |
[V:2]z6 |
[V:3]z2G, A,2z |
[V:4]z2E, E,2z |
[V:5]z2E, A,2z |
[V:1]Fz2 Ez2 |
[V:2]Dz2 Cz2 |
[V:3]zFF zEE |
[V:4]zA,A, zCA, |
[V:5]zD,D, zA,A, |
[V:1]B,/E/G/E/e/E/ c/E/C/E/A,/E/ |
[V:2]z6 |
[V:3]EDD C3 |
[V:4]B,3 C3 |
[V:5]G,3 A,3 |
[V:1]B,/E/G/E/e/E/ c/E/C/E/A,/E/ |
[V:2]z6 |
[V:3]D3 C3 |
[V:4]B,3 C3 |
[V:5]G,3 A,3 |
[V:1]B,/E/G/E/e/E/ cz2 |
[V:2]z6 |
[V:3]D2>C2 z2 |
[V:4]B,2>C2 z2 |
[V:5]G,2>A,2 z2 |
[V:1]A3 c/A/e/c/A/E/ |
[V:2]z6 |
[V:3]zCC C2z |
[V:4]zEE E2z |
[V:5]zA,A, A,2z |
[V:1]CA,B, CA,z |
[V:2]z6 |
[V:3]z2G, A,2z |
[V:4]z2E, E,2z |
[V:5]z2E, A,2z |
[V:1]z6 |
[V:2]z6 |
[V:3]dBc dBz |
[V:4]BGA BGz |
[V:5]z6 |
[V:1]ccc cc/d/c |
[V:2]z6 |
[V:3]EEE AAA |
[V:4]AAA FFF |
[V:5]A,A,A, F,F,F, |
[V:1]b4- bg/f//g// |
[V:2]z6 |
[V:3]g3- g2c |
[V:4]c4- cB |
[V:5]^E,6 |
[V:1]a^e/^d//e//f c/B//c//=dB/A//B// |
[V:2]z6 |
[V:3]c2z4 |
[V:4]A2z4 |
[V:5]F,2z4 |
[V:1]cG/F//G//A ^EFA |
[V:2]z6 |
[V:3]z2>^E2 FA |
[V:4]z2>^E2 FA |
[V:5]z2>^E,2 F,A, |
[V:1]=C3 B,2^A, |
[V:2]z6 |
[V:3]=C3 B,2^A, |
[V:4]=C3 B,2^A, |
[V:5]=C,3 B,,2^A,, |
[V:1]B,2B, ^D2D |
[V:2]z6 |
[V:3]B,AA zAA |
[V:4]B,FF zFF |
[V:5]B,,2z B,,2z |
[V:1]F2F A2A |
[V:2]z6 |
[V:3]zAA zFF |
[V:4]z^DD zDD |
[V:5]B,,2z B,,2z |
[V:1]c4 BA |
[V:2]z6 |
[V:3]A4 GF |
[V:4]z^DD DDD |
[V:5]B,,2z4 |
[V:1]G/B/G/B/A/c/ Fz2 |
[V:2]z6 |
[V:3]E4 ^DC |
[V:4]E2z4 |
[V:5]z6 |
[V:1]F/A/F/A/G/B/ Ez2 |
[V:2]z6 |
[V:3]^D4 CB, |
[V:4]z6 |
[V:5]z6 |
[V:1]E/G/E/G/F/A/ ^D/F/D/F/E/G/ |
[V:2]z6 |
[V:3]C4 B,A, |
[V:4]z6 |
[V:5]z6 |
[V:1]C/E/C/E/^D/F/ B,CD |
[V:2]z6 |
[V:3]A,6 |
[V:4]z6 |
[V:5]z6 |
[V:1]EG/B/^d eBd |
[V:2]z6 |
[V:3]G,2F EG/E/B, |
[V:4]z2B, B,2F |
[V:5]z2A, G,2A, |
[V:1]eB^d ede |
[V:2]z6 |
[V:3]EG/E/B, B,B,B, |
[V:4]E2F EFE |
[V:5]G,2A, G,A,G, |
[V:1]^ded ede |
[V:2]z6 |
[V:3]B,B,B, B,B,B, |
[V:4]FEF EFE |
[V:5]A,G,A, G,A,G, |
[V:1]^d/e/f/g/a/b/ a/g/f/e/d/c/ |
[V:2]z6 |
[V:3]B,z4 z |
[V:4]Az4 z |
[V:5]F,z4 z |
[V:1]Bz4 B |
[V:2]z6 |
[V:3]z6 |
[V:4]z6 |
[V:5]z6 |
[V:1]=g4- ga |
[V:2]z6 |
[V:3]B3 =c3 |
[V:4]E3 e3 |
[V:5]EEE A,A,A, |
[V:1]fed d2=c |
[V:2]z6 |
[V:3]=c3 A3 |
[V:4]A3 D3 |
[V:5]DDD F,F,F, |
[V:1]BAB cBc |
[V:2]z6 |
[V:3]D3 =G3 |
[V:4]=G3 E3 |
[V:5]=G,G,G, A,A,A, |
[V:1]d3 D2d |
[V:2]z6 |
[V:3]FF/=G/A/G/ F2z |
[V:4]D2z4 |
[V:5]D,2z4 |
[V:1]dDd dDd |
[V:2]z6 |
[V:3]F/A/F/A/F/A/ G/B/G/B/G/B/ |
[V:4]DDD B,B,E |
[V:5]z6 |
[V:1]ce/d/c/B/ A2e |
[V:2]z6 |
[V:3]A2z4 |
[V:4]A,2z4 |
[V:5]z6 |
[V:1]eEe eEe |
[V:2]z6 |
[V:3]=G/B/G/B/G/B/ ^A/c/A/c/A/c/ |
[V:4]E,EE CCF |
[V:5]z6 |
[V:1]^df/e/d/c/ B2d/B/ |
[V:2]z6 |
[V:3]B2z4 |
[V:4]B,2z4 |
[V:5]z6 |
[V:1]=g/e/g/e/^d/B/ g/e/g/e/d/B/ |
[V:2]z6 |
[V:3]z=GF zGF |
[V:4]zC^D zCD |
[V:5]z^A,B, zA,B, |
[V:1]=g/e/g/e/^d/B/ g/e/g/e/d/B/ |
[V:2]z6 |
[V:3]z=GF zGF |
[V:4]zC^D zCD |
[V:5]z^A,B, zA,B, |
[V:1]c/e/^d/f/e/g/ f/a/g/b/a/c'/ |
[V:2]z6 |
[V:3]z6 |
[V:4]z6 |
[V:5]z6 |
[V:1]b4 ^a=a |
[V:2]z6 |
[V:3]zBB B3- |
[V:4]zEE ^D3 |
[V:5]zG,G, F,3 |
[V:1]gfe ^dca |
[V:2]z6 |
[V:3]B^de z2f |
[V:4]EAB E2c |
[V:5]E,F,G, A,3 |
[V:1]g2f e2B |
[V:2]z6 |
[V:3]e2^d e2z |
[V:4]B2A G2z |
[V:5]B,2B,, E,2z |
[V:1]b4 ^a=a |
[V:2]z6 |
[V:3]zEE ^D2z |
[V:4]B6- |
[V:5]z=G,G, F,2z |
[V:1]g=g2 gfz |
[V:2]z6 |
[V:3]zee e^dB, |
[V:4]B^AA B2z |
[V:5]z6 |
[V:1]z=gg f2z |
[V:2]z6 |
[V:3]B4 ^A=A |
[V:4]zee ^d2z |
[V:5]B,,6- |
[V:1]zee e^d=g- |
[V:2]z6 |
[V:3]G=G2 F2E |
[V:4]zBB B2^A |
[V:5]B,,6- |
[V:1]gfe2 ^d=g- |
[V:2]z6 |
[V:3]^D2=G F2E |
[V:4]B4- B^A |
[V:5]B,,6 |
[V:1]gf=g2 fz |
[V:2]z6 |
[V:3]^D2E D2z |
[V:4]B2^A B2z |
[V:5]B,,2B, B,,2z |
[V:1]z2B c/e/^d/f/e/g/ |
[V:2]z6 |
[V:3]z2G ABc |
[V:4]z6 |
[V:5]z6 |
[V:1]f/a/g/b/a/c'/ b3- |
[V:2]z6 |
[V:3]^def gBB |
[V:4]z4 EE |
[V:5]z4 G,G, |
[V:1]b^a=a gfe |
[V:2]z6 |
[V:3]B4 ^de |
[V:4]^D2>E2 AB |
[V:5]F,2>E,2 F,G, |
[V:1]^dca g2f |
[V:2]z6 |
[V:3]z2f e2^d |
[V:4]E2c B2A |
[V:5]A,3 B,2B,, |
[V:1]e2B BBB |
[V:2]z6 |
[V:3]e2z GGG |
[V:4]G2z EEE |
[V:5]E,2z EEE |
[V:1]eee ff/e/f |
[V:2]z6 |
[V:3]GGe ^dd/c/d |
[V:4]EEE BBB |
[V:5]CCC B,B,B, |
[V:1]g2g fff |
[V:2]z6 |
[V:3]e2e ^ddd |
[V:4]B2B ^BBB |
[V:5]E,2E, G,G,G, |
[V:1]ee/^d/e fad |
[V:2]z6 |
[V:3]GGG cAF |
[V:4]ccG AcA |
[V:5]CCC A,F,B, |
[V:1]e2B cB^d |
[V:2]z2G AGF |
[V:3]G2z3 A |
[V:4]G2z3 B, |
[V:5]E,2z3 B,, |
[V:1]egB cB^d |
[V:2]EeG AGF |
[V:3]G2z3 A |
[V:4]B,2z3 B, |
[V:5]E,2z3 B,, |
[V:1]e2E E3 |
[V:2]E2B, CB,A, |
[V:3]e6- |
[V:4]B,2G, A,G,F, |
[V:5]E,2z4 |
[V:1]E2E E3 |
[V:2]B,2B, CB,A, |
[V:3]e6- |
[V:4]G,2G, A,G,F, |
[V:5]E,,2z4 |
[V:1]E3 E3 |
[V:2]B,2C D2C |
[V:3]e3 G2A |
[V:4]G,2A, B,2A, |
[V:5]E,,6 |
[V:1]E2>E2 FG |
[V:2]D3 z3 |
[V:3]G4 z2 |
[V:4]B,4 z2 |
[V:5]E,,2>E,,2 z2 |
[V:1]E2>E2 F=G |
[V:2]D3 z3 |
[V:3]Gz4 z |
[V:4]B,z4 z |
[V:5]E,,z4 z |
[V:1]F2>F2 d/B/F |
[V:2]z6 |
[V:3]E3 D3 |
[V:4]CCC B,B,B, |
[V:5]^A,,A,,A,, B,,B,,B,, |
[V:1]Fe/c/F Fd/B/F |
[V:2]z6 |
[V:3]E3 D3 |
[V:4]CCC B,B,B, |
[V:5]^A,,A,,A,, B,,B,,B,, |
[V:1]^Ed/B/d/B/ Ez2 |
[V:2]z6 |
[V:3]D2<z2 DD |
[V:4]B,2z2 B,B, |
[V:5]=G,,2<z2 =G,G, |
[V:1]^Ed/B/d/B/ Ez2 |
[V:2]z6 |
[V:3]D2z2 DD |
[V:4]B,2z2 B,B, |
[V:5]=G,2z2 G,G, |
[V:1]d3 =F3 |
[V:2]z6 |
[V:3]DDD DDD |
[V:4]B,B,B, B,B,B, |
[V:5]=G,G,G, G,G,G, |
[V:1]E3 e3- |
[V:2]z6 |
[V:3]DDD DDD |
[V:4]B,B,B, B,B,B, |
[V:5]G,G,G, G,G,G, |
[V:1]e3 =G3 |
[V:2]z6 |
[V:3]CCC EEE |
[V:4]A,A,A, CCC |
[V:5]A,A,A, A,A,A, |
[V:1]F3 f3 |
[V:2]z6 |
[V:3]EEE EEE |
[V:4]CCC CCC |
[V:5]^A,A,A, A,A,A, |
[V:1]fd'c' bd'/c'/b/a/ |
[V:2]z6 |
[V:3]DFF FFF |
[V:4]DDD DDD |
[V:5]B,B,B, B,B,B, |
[V:1]gba gb/a/g/f/ |
[V:2]z6 |
[V:3]GGG GGG |
[V:4]DDD DDD |
[V:5]B,B,B, B,B,B, |
[V:1]^e3 c3 |
[V:2]z6 |
[V:3]GGG GGG |
[V:4]CCC ^EEE |
[V:5]CCC CCC |
[V:1]=ca/f/a/f/ cz2 |
[V:2]z6 |
[V:3]F2z2 AA |
[V:4]F2z2 FF |
[V:5]D2z2 DD |
[V:1]^Ba/f/a/f/ Bz2 |
[V:2]z6 |
[V:3]A2z2 AA |
[V:4]F2z2 FF |
[V:5]D2z2 DD |
[V:1]a3 =c3 |
[V:2]z6 |
[V:3]AAA AAA |
[V:4]FFF FFF |
[V:5]DDD DDD |
[V:1]B3 b3- |
[V:2]z6 |
[V:3]AAA AAA |
[V:4]FFF FFF |
[V:5]^DDD DDD |
[V:1]b3 d3 |
[V:2]z6 |
[V:3]GGG BBB |
[V:4]GGG GGG |
[V:5]EEE EEE |
[V:1]c3 c'3- |
[V:2]z6 |
[V:3]BBB BBB |
[V:4]GGG GGG |
[V:5]^EEE EEE |
[V:1]c'3 f3 |
[V:2]z6 |
[V:3]AAA ccc |
[V:4]FFF FFF |
[V:5]FFF A,A,A, |
[V:1]d'/b/f/d/B/d/ Bz2 |
[V:2]z6 |
[V:3]F2<z2 d/f/d/f/ |
[V:4]F2<z2 FF |
[V:5]B,2<z2 B,B, |
[V:1]d'/b/g/e/B/e/ Gz2 |
[V:2]z6 |
[V:3]e2<z2 d/e/d/e/ |
[V:4]B2<z2 BB |
[V:5]G,2<z2 G,G, |
[V:1]c'/a/e/c/A/c/ A2z |
[V:2]z6 |
[V:3]c2<z2 c/e/c/e/ |
[V:4]E2<z2 EE |
[V:5]A,2<z2 A,G, |
[V:1]c'/a/f/d/A/d/ F2z |
[V:2]z6 |
[V:3]d2<z2 c/d/c/d/ |
[V:4]A2<z2 AA |
[V:5]F,2<z2 F,F, |
[V:1]b/g/d/B/G/B/ G2z |
[V:2]z6 |
[V:3]B2<z2 B/d/B/d/ |
[V:4]D2<z2 DD |
[V:5]G,2<z2 G,F, |
[V:1]b/g/^e/c/G/c/ ^E2z |
[V:2]z6 |
[V:3]c2<z2 B/c/B/c/ |
[V:4]G2<z2 GG |
[V:5]^E,2<z2 E,E, |
[V:1]F/c/A/c/F/c/ G/c/^e/c/c'/c/ |
[V:2]z6 |
[V:3]A2z c2z |
[V:4]A2z B2z |
[V:5]F,2z ^E,2z |
[V:1]a/c/A/c/F/c/ G/c/^e/c/c'/c/ |
[V:2]z6 |
[V:3]c2z c2z |
[V:4]A2z B2z |
[V:5]F,2z ^E,2z |
[V:1]a/c/A/c/F/c/ G/c/^e/c/c'/c/ |
[V:2]z6 |
[V:3]c2z c2z |
[V:4]A2z B2z |
[V:5]F,2z ^E,2z |
[V:1]a/c/a/c/^a/c/ b/c/b/c/^b/c/ |
[V:2]z6 |
[V:3]c2z3 F |
[V:4]F2E ^D2=D |
[V:5]F,2z4 |
[V:1]c'/c/c'/c/g/c/ a/c/a/c/^b/c/ |
[V:2]z6 |
[V:3]^E2z3 F |
[V:4]C2^E F2D |
[V:5]C,2z4 |
[V:1]c'/c/c'/c/g/c/ a/c/a/c/^b/c/ |
[V:2]z6 |
[V:3]^E2z3 F |
[V:4]C2^E F2D |
[V:5]C,2z4 |
[V:1]c'/c/c'/c/c'/c/ c'/c/c'/c/c'/c/ |
[V:2]z6 |
[V:3]^E2z4 |
[V:4]C2z4 |
[V:5]C,2z4 |
[V:1]dd'd' d'b/^a//b//d' |
[V:2]z6 |
[V:3]G6- |
[V:4]^E6- |
[V:5]B,,6- |
[V:1]^e/^d//e//gB/^A//B// =dG/F//G//B |
[V:2]z6 |
[V:3]G6 |
[V:4]E6 |
[V:5]B,,6 |
[V:1]D4 CB, |
[V:2]z6 |
[V:3]B,6 |
[V:4]G,6 |
[V:5]^E,,6 |
[V:1]A,/F/A/F/A/F/ GBd |
[V:2]z6 |
[V:3]A,2z B,2z |
[V:4]A,2z B,2z |
[V:5]F,,2z B,,2z |
[V:1]C/^E/G/E/G/E/ FAc |
[V:2]z6 |
[V:3]C2z D2z |
[V:4]C2z D2z |
[V:5]C,2z D,2z |
[V:1]A,/F/A/F/A/F/ GBd |
[V:2]z6 |
[V:3]A,2z B,2z |
[V:4]A,2z B,2z |
[V:5]A,,2z B,,2z |
[V:1]C/^E/G/E/G/E/ Fzc |
[V:2]z6 |
[V:3]C2z F2z |
[V:4]C2z F2z |
[V:5]C,2z F,2z |
[V:1]fff ggg |
[V:2]z6 |
[V:3]ccc ccc |
[V:4]AAA GGG |
[V:5]FFF ^EEE |
[V:1]aa/g/a gzc |
[V:2]z6 |
[V:3]cf/^e/f ez2 |
[V:4]Fcc cz2 |
[V:5]FFF C2z |
[V:1]fff ggg |
[V:2]z6 |
[V:3]ccc ddd |
[V:4]AAA BBB |
[V:5]FFF EEE |
[V:1]aa/b/c' bz2 |
[V:2]z6 |
[V:3]ca/g/a gz2 |
[V:4]AEE Ez2 |
[V:5]A,A,A, E,z2 |
[V:1]z6 |
[V:2]z6 |
[V:3]z6 |
[V:4]z6 |
[V:5]z6 |
[V:1]A3 c/A/e/c/A/E/ |
[V:2]z6 |
[V:3]zCC C2z |
[V:4]zEE E2z |
[V:5]zA,A, A,2z |
[V:1]CA,B, CA,z |
[V:2]z6 |
[V:3]z2G, A,2z |
[V:4]z2E, E,2z |
[V:5]z2E, A,2z |
[V:1]Bz2 cz2 |
[V:2]Ez2 Az2 |
[V:3]zBB zcc |
[V:4]zGG zAA |
[V:5]zE,E, zA,,A,, |
[V:1]dd/c/d cz2 |
[V:2]z6 |
[V:3]zBB Az2 |
[V:4]zEE Ez2 |
[V:5]zG,,G,, A,,2z |
[V:1]A3 =c/A/e/c/A/E/ |
[V:2]z6 |
[V:3]z=CC C2z |
[V:4]zEE E2z |
[V:5]zA,A, A,2z |
[V:1]=CA,B, CA,e |
[V:2]z6 |
[V:3]z2G, A,2z |
[V:4]z2E, E,2=C |
[V:5]z2E, A,2z |
[V:1]=f/a/f/a/f/d/ Bzd |
[V:2]z6 |
[V:3]z2A B/d/B/d/B/=G/ |
[V:4]D2=F =G2B, |
[V:5]z6 |
[V:1]e/=g/e/g/e/=c/ Azc |
[V:2]z6 |
[V:3]Ez=G A/=c/A/c/A/=F/ |
[V:4]=C2E =F2A, |
[V:5]z6 |
[V:1]d/=f/d/f/d/B/ GzB |
[V:2]z6 |
[V:3]DzD G/B/G/B/G/E/ |
[V:4]B,2D E2G, |
[V:5]z6 |
[V:1]=c/e/c/e/B A/c/A/c/^D |
[V:2]z6 |
[V:3]=cz4 A, |
[V:4]A,2=G, =F,2F, |
[V:5]z6 |
[V:1]E2E G2G |
[V:2]z6 |
[V:3]G,G,G, EEE |
[V:4]E,B,B, B,B,B, |
[V:5]E,,E,E, E,,E,E, |
[V:1]B2B d2d |
[V:2]z6 |
[V:3]GGG BBB |
[V:4]E,EE G,GG |
[V:5]E,,E,E, E,,E,E, |
[V:1]f4 ed |
[V:2]z6 |
[V:3]d4 cB |
[V:4]GGG GGG |
[V:5]G,,2z4 |
[V:1]c/e/c/e/d/f/ Bz2 |
[V:2]z6 |
[V:3]A4 GF |
[V:4]A2z4 |
[V:5]z6 |
[V:1]B/d/B/d/c/e/ Az2 |
[V:2]z6 |
[V:3]G4 FE |
[V:4]z6 |
[V:5]z6 |
[V:1]A/c/A/c/B/d/ G/B/G/B/A/c/ |
[V:2]z6 |
[V:3]F4 ED |
[V:4]z6 |
[V:5]z6 |
[V:1]F/A/F/A/G/B/ EFG |
[V:2]z6 |
[V:3]D6 |
[V:4]z6 |
[V:5]z6 |
[V:1]Ac/A/E Ac/A/E |
[V:2]z6 |
[V:3]C2G AEG |
[V:4]z2E E2E |
[V:5]z2D C2D |
[V:1]Ac/A/E AGA |
[V:2]z6 |
[V:3]AEG AEE |
[V:4]E2B, A,B,A, |
[V:5]C2D CDC |
[V:1]GAG AGA |
[V:2]z6 |
[V:3]EEE EEE |
[V:4]B,A,B, A,B,A, |
[V:5]DCD CDC |
[V:1]G/A/B/c/d/e/ d/c/B/A/G/F/ |
[V:2]z6 |
[V:3]E2z4 |
[V:4]D2z4 |
[V:5]B,2z4 |
[V:1]E2z3 e |
[V:2]z6 |
[V:3]z6 |
[V:4]z6 |
[V:5]z6 |
[V:1]=c'4- c'd' |
[V:2]z6 |
[V:3]e3 =f3- |
[V:4]A,3 A3 |
[V:5]A,A,A, D,D,D, |
[V:1]ba=g g2=f |
[V:2]z6 |
[V:3]f3 d3 |
[V:4]D3 =G,3 |
[V:5]=G,G,G, B,,B,,B,, |
[V:1]ede fef |
[V:2]z6 |
[V:3]=G3 =c3 |
[V:4]=C3 A,3 |
[V:5]=C,C,C, D,D,D, |
[V:1]=g3 =G2g |
[V:2]z6 |
[V:3]BB/=c/d/c/ Bz2 |
[V:4]=G,2z4 |
[V:5]=G,,2z4 |
[V:1]=g=Gg gGg |
[V:2]z6 |
[V:3]B/d/B/d/B/d/ c/e/c/e/c/e/ |
[V:4]=GGG EEA |
[V:5]z6 |
[V:1]fa/=g/f/e/ d2a |
[V:2]z6 |
[V:3]d2z4 |
[V:4]D2z4 |
[V:5]z6 |
[V:1]aAa aAa |
[V:2]z6 |
[V:3]=c/e/c/e/c/e/ ^d/f/d/f/d/f/ |
[V:4]A,AA FBB |
[V:5]z6 |
[V:1]gb/a/g/f/ e2G/E/ |
[V:2]z6 |
[V:3]e2z4 |
[V:4]E2z4 |
[V:5]z6 |
[V:1]=c/A/c/A/G/E/ c/A/c/A/G/E/ |
[V:2]z6 |
[V:3]z=CB, zCB, |
[V:4]zF,G, zF,G, |
[V:5]z^D,E, zD,E, |
[V:1]=c/A/c/A/G/E/ c/A/c/A/G/E/ |
[V:2]z6 |
[V:3]z=CB, zCB, |
[V:4]zF,G, zF,G, |
[V:5]z^D,E, zD,E, |
[V:1]F/A/G/B/A/c/ B/d/c/e/d/f/ |
[V:2]z6 |
[V:3]z6 |
[V:4]z6 |
[V:5]z6 |
[V:1]e4 ^d=d |
[V:2]z6 |
[V:3]zEE E3- |
[V:4]zA,A, G,2z |
[V:5]zC,C, B,,3 |
[V:1]cBA GFd |
[V:2]z6 |
[V:3]EGA z2B |
[V:4]A,DE A,2F |
[V:5]A,,B,,C, D,3 |
[V:1]c2B A2e |
[V:2]z6 |
[V:3]A2G A2z |
[V:4]E2D C2z |
[V:5]E,2E,, A,,2z |
[V:1]e'4 ^d'=d' |
[V:2]z6 |
[V:3]zAA G2z |
[V:4]e6- |
[V:5]z=CC B,2z |
[V:1]c'2<=c'2 bz |
[V:2]z6 |
[V:3]zaa agE |
[V:4]e^dd e2z |
[V:5]z6 |
[V:1]z=c'c' b2z |
[V:2]z6 |
[V:3]e4 ^d=d |
[V:4]zAA G2z |
[V:5]E,6- |
[V:1]zaa ag=c'- |
[V:2]z6 |
[V:3]c2=c B2A |
[V:4]zee e2^d |
[V:5]E,6- |
[V:1]c'ba2 g=c'- |
[V:2]z6 |
[V:3]G2=c B2A |
[V:4]e4- e^d |
[V:5]E,6 |
[V:1]c'b=c' c'bz |
[V:2]z6 |
[V:3]G2A G2z |
[V:4]e2^d e2z |
[V:5]E,4- E,z |
[V:1]z2E F/A/G/B/A/c/ |
[V:2]z6 |
[V:3]z2C DEF |
[V:4]z6 |
[V:5]z6 |
[V:1]B/d/c/e/d/f/ e3- |
[V:2]z6 |
[V:3]GAB cEE |
[V:4]z4 A,A, |
[V:5]z4 C,C, |
[V:1]e^d=d cBA |
[V:2]z6 |
[V:3]E2>E2 GA |
[V:4]G,2>A,2 DE |
[V:5]B,,2>A,,2 B,,C, |
[V:1]GFd c2B |
[V:2]z6 |
[V:3]z2B A2G |
[V:4]A,2F E2D |
[V:5]D,3 E,2E,, |
[V:1]A2E EEE |
[V:2]z6 |
[V:3]A2z CCC |
[V:4]C2z A,A,A, |
[V:5]A,,2z A,A,A, |
[V:1]AAA BB/A/B |
[V:2]z6 |
[V:3]CCA GG/F/G |
[V:4]A,A,A, EEE |
[V:5]F,F,F, E,E,E, |
[V:1]c2c BBB |
[V:2]z6 |
[V:3]A2A GGG |
[V:4]E2E ^EEE |
[V:5]A,,2A,, C,C,C, |
[V:1]AA/G/A BdG |
[V:2]z6 |
[V:3]CCC FDB, |
[V:4]FFC DFD |
[V:5]F,F,F, D,B,,E, |
[V:1]A2E FEG |
[V:2]z2>D2 CB, |
[V:3]C2z3 D |
[V:4]C2z3 E, |
[V:5]A,,2z3 E,, |
[V:1]AcE FEG |
[V:2]A,AC DCB, |
[V:3]C2z3 D |
[V:4]E,2z3 E, |
[V:5]A,,2z3 E,, |
[V:1]A2A A3- |
[V:2]A,2E FED |
[V:3]C2C DCB, |
[V:4]A,6- |
[V:5]A,,2z4 |
[V:1]A2A A3- |
[V:2]E2E FED |
[V:3]C2C DCB, |
[V:4]A,6- |
[V:5]A,,2z4 |
[V:1]A3 A3 |
[V:2]E2F E2F |
[V:3]C2D C2D |
[V:4]A,6 |
[V:5]A,,6- |
[V:1]A3 A3 |
[V:2]E2>E2 F=G |
[V:3]C2z4 |
[V:4]A,2z4 |
[V:5]A,,2z4 |
[V:1]A6- |
[V:2]E6- |
[V:3]C6- |
[V:4]A,6- |
[V:5]A,,6- |
[V:1]Az4 z |]
[V:2]Ez4 z |]
[V:3]C2z4 |]
[V:4]A,2z4 |]
[V:5]A,,2z4 |]

